X: 5473
T: Bunclody
R: waltz
M: 3/4
K: Cmajor
E>F|Gc3 dB|cG3 EG|FD3 CB,|C4|
B>c|d3G cB|A G3 EF|GE C3E|D4|
B>c|d4 ed|cB G2 EF|GE C3E|D4 ED|
Cc3 dB|cG3 EG|FD3 CB,|C4||

